svgs/sharp-light/windsock.svg

<svg xmlns="http://www.w3.org/2000/svg" viewBox="0 0 512 512"><!--! Font Awesome Pro 6.6.0 by @fontawesome - https://fontawesome.com License - https://fontawesome.com/license (Commercial License) Copyright 2024 Fonticons, Inc. --><path d="M32 0l0 16 0 112 64 0 0-47.4L96 48l32 6.2L512 128l0 160L128 361.8 96 368l0-32.6L96 288l-64 0 0 208 0 16L0 512l0-16L0 272 0 144 0 16 0 0 32 0zm0 160l0 96 64 0 0-96-64 0zm96 169.3l96-18.5 0-205.6L128 86.7l0 41.3 0 32 0 96 0 32 0 41.3zm128-24.6L384 280 384 136 256 111.4l0 193.3zM416 142.1l0 131.8 64-12.3 0-107.1-64-12.3z"/></svg>

<svg xmlns="http://www.w3.org/2000/svg" viewBox="0 0 512 512"><!--! Font Awesome Pro 6.5.2 by @fontawesome - https://fontawesome.com License - https://fontawesome.com/license (Commercial License) Copyright 2024 Fonticons, Inc. --><path d="M32 0V16 128H96V80.6 48l32 6.2L512 128V288L128 361.8 96 368V335.4 288H32V496v16H0V496 272 144 16 0H32zm0 160v96H96V160H32zm96 169.3l96-18.5V105.2L128 86.7V128v32 96 32 41.3zm128-24.6L384 280V136L256 111.4V304.6zM416 142.1V273.9l64-12.3V154.4l-64-12.3z"/></svg>
